svgs/thin/arrows-rotate.svg

<svg xmlns="http://www.w3.org/2000/svg" viewBox="0 0 512 512"><!--! Font Awesome Pro 6.0.0-alpha3 by @fontawesome - https://fontawesome.com License - https://fontawesome.com/license (Commercial License) --><path d="M463.5 272.1C463.2 272 462.9 272 462.6 272c-4.031 0-7.469 3-7.938 7.094C443.1 379.9 357.7 456 256 456c-85.8 0-161.6-55.56-188.9-136H184C188.4 320 192 316.4 192 312S188.4 304 184 304H48c-4.406 0-8 3.594-8 8v128C40 444.4 43.59 448 48 448s8-3.594 8-8v-104C88.43 416.9 167.2 472 256 472c109.8 0 202.1-82.16 214.6-191.1C471.1 276.5 467.9 272.6 463.5 272.1zM464 64c-4.406 0-8 3.594-8 8v104C423.6 95.09 344.8 40 256 40c-109.8 0-202.1 82.16-214.6 191.1c-.5 4.375 2.625 8.344 7.031 8.844C48.78 239.1 49.09 240 49.38 240c4.031 0 7.469-3 7.938-7.094C68.91 132.1 154.3 56 256 56c85.8 0 161.6 55.56 188.9 136H328C323.6 192 320 195.6 320 200s3.594 8 8 8h136c4.406 0 8-3.594 8-8v-128C472 67.59 468.4 64 464 64z"/></svg>

<svg xmlns="http://www.w3.org/2000/svg" viewBox="0 0 512 512"><!-- Font Awesome Pro 6.0.0-alpha2 by @fontawesome - https://fontawesome.com License - https://fontawesome.com/license (Commercial License) --><path d="M463.531 272.062C463.219 272.031 462.906 272 462.625 272C458.594 272 455.156 275 454.687 279.094C443.094 379.938 357.656 456 256 456C170.197 456 94.365 400.441 67.109 320H184C188.406 320 192 316.406 192 312S188.406 304 184 304H48C43.594 304 40 307.594 40 312V440C40 444.406 43.594 448 48 448S56 444.406 56 440V335.969C88.428 416.914 167.248 472 256 472C365.812 472 458.062 389.844 470.562 280.906C471.062 276.531 467.938 272.562 463.531 272.062ZM464 64C459.594 64 456 67.594 456 72V176.031C423.572 95.086 344.752 40 256 40C146.188 40 53.938 122.156 41.438 231.094C40.938 235.469 44.062 239.438 48.469 239.938C48.781 239.969 49.094 240 49.375 240C53.406 240 56.844 237 57.313 232.906C68.906 132.062 154.344 56 256 56C341.803 56 417.635 111.559 444.891 192H328C323.594 192 320 195.594 320 200S323.594 208 328 208H464C468.406 208 472 204.406 472 200V72C472 67.594 468.406 64 464 64Z"/></svg>
